static/assets/img/icons/theme/design/crop.svg

<svg height="24" viewBox="0 0 24 24" width="24" xmlns="http://www.w3.org/2000/svg"><g fill="none" fill-rule="evenodd"><path d="m0 0h24v24h-24z" opacity="0"/><g fill="#000" fill-rule="nonzero"><path d="m10 6h4.5c2.209139 0 3.5 1.290861 3.5 3.5v4.5h-2v-4.5c0-1.1045695-.3954305-1.5-1.5-1.5h-4.5zm-2 0v2h-4c-.55228475 0-1-.44771525-1-1s.44771525-1 1-1zm10 10v4c0 .5522847-.4477153 1-1 1s-1-.4477153-1-1v-4z" opacity=".3"/><path d="m7 5c-.55228475 0-1-.44771525-1-1s.44771525-1 1-1h10.5c2.209139 0 3.5 1.290861 3.5 3.5v10.5c0 .5522847-.4477153 1-1 1s-1-.4477153-1-1v-10.5c0-1.1045695-.3954305-1.5-1.5-1.5z" transform="matrix(-1 0 0 -1 27 21)"/></g></g></svg>

<svg width="24px" height="24px" viewBox="0 0 24 24" version="1.1" xmlns="http://www.w3.org/2000/svg" xmlns:xlink="http://www.w3.org/1999/xlink">
    <title>Icon For Crop</title>
    <g stroke="none" stroke-width="1" fill="none" fill-rule="evenodd">
        <rect opacity="0" x="0" y="0" width="24" height="24"></rect>
        <path d="M10,6 L14.5,6 C16.709139,6 18,7.290861 18,9.5 L18,14 L16,14 L16,9.5 C16,8.3954305 15.6045695,8 14.5,8 L10,8 L10,6 Z M8,6 L8,8 L4,8 C3.44771525,8 3,7.55228475 3,7 C3,6.44771525 3.44771525,6 4,6 L8,6 Z M18,16 L18,20 C18,20.5522847 17.5522847,21 17,21 C16.4477153,21 16,20.5522847 16,20 L16,16 L18,16 Z" fill="#000000" fill-rule="nonzero" opacity="0.3"></path>
        <path d="M7,5 C6.44771525,5 6,4.55228475 6,4 C6,3.44771525 6.44771525,3 7,3 L17.5,3 C19.709139,3 21,4.290861 21,6.5 L21,17 C21,17.5522847 20.5522847,18 20,18 C19.4477153,18 19,17.5522847 19,17 L19,6.5 C19,5.3954305 18.6045695,5 17.5,5 L7,5 Z" fill="#000000" fill-rule="nonzero" transform="translate(13.500000, 10.500000) rotate(-180.000000) translate(-13.500000, -10.500000) "></path>
    </g>
</svg>
